!!!!SEGMENT: pl-cz--ii-87--005-004_hanel--missae-kirie-sanctus.krn
!!!cenid: 18xx:1201
!!!COM: Hanel
!!!COM-rismID:
!!!CDT: ~1800-~1899
!!!CNT:
!!!OPR: Missae Kirie
!!!OTL: Sanctus
!!!OMV: 004
!!!PDT: 1888
!!!AGN: Sacred; Mass
!!!SMS-siglum: PL-CZ
!!!SMS-shelfmark: II-87
!!!SMS-shelfwork: 005-004 M
!!!SMS-variant:
!!!SMS-altvar:
!!!NIFC-rismSourceID: 300033228
!!!NIFC-islandoraID: pl-cz:33881
!!!URL-pdf-islandora: https://repozytorium.nifc.pl/islandora/object/pl-cz%3A33881/datastream/PDF/view
!!!URL-scan:
!!!ONB-nifc: UWAGA: części Mszy: Kirie, Gloria, Credo, Sanctus, Benedictus, Agnus
!!!OMD: Andante
!!!AIN: 1 organ 1 vox
!!!key: F
**kern	**kern	**text
*part2	*part1	*part1
*staff2	*staff1	*staff1
*I"Organo	*I"Voce	*
*Iorgan	*Ivox	*
*ICklav	*ICvox	*
*clefF4	*clefG2	*
*k[b-]	*k[b-]	*
*F:	*F:	*
*M4/4	*M4/4	*
*met(c)	*met(c)	*
=1	=1	=1
*	*^	*
1r	2cc/	2a\	San-
.	4f/ 4a/	4reyy	-ctus,
.	4r	4ryy	.
=2	=2	=2	=2
!	!LO:TX:t=P:problem=2 left and right	!	!
1r	2dd\ 2ff\	2rgyy	San-
.	4dd/	4b-\	-ctus
.	4r	4ryy	.
=3	=3	=3	=3
2.C\ 2.G\	4b-/	4f\	Do-
.	8cc/L	4e\	-mi-
.	8dd/J	.	-nus
.	4cc/	4d\	De-
4C\ 4c\	4b-/	4e\	-us
*	*v	*v	*
=4	=4	=4
2.F\ 2.c\	4.g/ 4.b-/	Sa-
.	8f/ 8a/	-ba-
.	4f/ 4a/	-oth
!LO:TX:t=P:korekta:problem	!	!
4r	4r	.
=5	=5	=5
*	*^	*
4F\ 4c\	4a\ 4cc\	4reyy	Ple-
4r	8a/	8f\L	-ni
.	8b-/	8g\J	sunt
!	!LO:SIC:v:l:s=cae-	!	!
4r	8g#X\L 8bn\	4reyy	ce-
.	8a\ 8cc\	.	.
8r	8b-X\	8dd/	-li
8c\ 8g\	8b-\J	8ee/	et
*	*v	*v	*
!!LO:LB:g=original
=6	=6	=6
2.d\ 2.f\	2.a\ 2.ff\	ter-
4F\ 4f\	4a-X\ 4dd\	-ra
=7	=7	=7
*^	*^	*
!	!	!LO:TX:a:t=rall	!	!
4e/	1G\	2cc/	4g\	glo-
4e-X/	.	.	4f#X\	.
!LO:N:vis=2	!	!	!	!
4d/	.	8cc/L	2fn\	-ri-
.	.	8bn/	.	-a
4Bn/	.	8.ee/	.	tu-
.	.	16dd/Jk	.	.
*v	*v	*	*	*
*	*v	*v	*
=8	=8	=8
4C;M\ 4c\	4e;>\ 4cc\	-a
4r	4c/	Ho-
2r	4d/	-san-
.	4e/	-na
=9	=9	=9
1r	2f/	in
.	2a/	ex-
=10	=10	=10
*	*^	*
1r	2.cc/	4r	-cel-
.	.	4c\	.
.	.	4d\	.
.	4b-/	4e\	-sis
=11	=11	=11	=11
1r	4a/	4f\	ho-
.	2dd/	4d\	-san-
.	.	4e\	.
.	4cc/	4f#X\	-na
!!LO:LB:g=original
=12	=12	=12	=12
1r	4b-/	4g\	in
.	4cc/	4e\	ex-
.	4a/	4f\	-cel-
.	4b-/	4d\	-sis
=13	=13	=13	=13
1r	4g/	4e\	Ho-
.	2cc/	4c\	-san-
.	.	4d\	.
.	4b-/	4e\	.
=14	=14	=14	=14
!LO:N:vis=1	!	!	!
2r	4a/	4f\	-na
.	4r	4ryy	.
4D\ 4d\	4f\ 4a\ 4ff\	4reyy	in
4r	4r	4ryy	.
*	*v	*v	*
=15	=15	=15
4BB-\ 4B-\	4d/ 4f/ 4g/	ex-
4r	4r	.
!	!LO:SIC:v:l:s=-cel-	!
4BB-\ 4B-\	4c/ 4e/ 4g/ 4cc/	-coel-
4r	4r	.
=16	=16	=16
4FF\ 4F\	4A/ 4c/ 4f/	-sis.
4r	4r	.
2r	2r	.
!!LO:PB:g=original
==	==	==
*-	*-	*-
!!!system-decoration: [(s1,s2)]
!!!RDF**kern: < = below
!!!RDF**kern: > = above
!!!ENC: Andrzej Kubiczek
!!!END: 2020-11-08
!!!ENC: Marta Chmielewska
!!!END: 2021-11-15
